svg/design/fold_horizontal_fill.svg

<?xml version="1.0" encoding="UTF-8"?>
<svg width="24px" height="24px" viewBox="0 0 24 24" version="1.1" xmlns="http://www.w3.org/2000/svg" xmlns:xlink="http://www.w3.org/1999/xlink">
    <title>fold_horizontal_fill</title>
    <g id="Icon" stroke="none" stroke-width="1" fill="none" fill-rule="evenodd">
        <g id="Design" transform="translate(-336.000000, -432.000000)" fill-rule="nonzero">
            <g id="fold_horizontal_fill" transform="translate(336.000000, 432.000000)">
                <path d="M24,0 L24,24 L0,24 L0,0 L24,0 Z M12.5935,23.2578 L12.5819,23.2595 L12.5109,23.295 L12.4919,23.2987 L12.4767,23.295 L12.4057,23.2595 C12.3958,23.2564 12.387,23.259 12.3821,23.2649 L12.378,23.2758 L12.3609,23.7031 L12.3659,23.7235 L12.3769,23.7357 L12.4805,23.8097 L12.4953,23.8136 L12.5071,23.8097 L12.6107,23.7357 L12.6233,23.7197 L12.6267,23.7031 L12.6096,23.2758 C12.6076,23.2657 12.601,23.2593 12.5935,23.2578 Z M12.8584,23.1453 L12.8445,23.1473 L12.6598,23.2397 L12.6499,23.2499 L12.6472,23.2611 L12.6651,23.6906 L12.6699,23.7034 L12.6784,23.7105 L12.8793,23.8032 C12.8914,23.8069 12.9022,23.803 12.9078,23.7952 L12.9118,23.7812 L12.8777,23.1665 C12.8753,23.1546 12.8674,23.147 12.8584,23.1453 Z M12.143,23.1473 C12.1332,23.1424 12.1222,23.1453 12.1156,23.1526 L12.1099,23.1665 L12.0758,23.7812 C12.0751,23.7927 12.0828,23.8019 12.0926,23.8046 L12.1083,23.8032 L12.3092,23.7105 L12.3186,23.7024 L12.3225,23.6906 L12.3404,23.2611 L12.3372,23.2485 L12.3278,23.2397 L12.143,23.1473 Z" id="MingCute"></path>
                <path d="M13,4 C13,3.44772 12.5523,3 12,3 C11.4477,3 11,3.44772 11,4 L11,5 C11,5.55228 11.4477,6 12,6 C12.5523,6 13,5.55228 13,5 L13,4 Z M13,9 C13,8.44772 12.5523,8 12,8 C11.4477,8 11,8.44772 11,9 L11,10 C11,10.5523 11.4477,11 12,11 C12.5523,11 13,10.5523 13,10 L13,9 Z M12,13 C12.5523,13 13,13.4477 13,14 L13,15 C13,15.5523 12.5523,16 12,16 C11.4477,16 11,15.5523 11,15 L11,14 C11,13.4477 11.4477,13 12,13 Z M13,19 C13,18.4477 12.5523,18 12,18 C11.4477,18 11,18.4477 11,19 L11,20 C11,20.5523 11.4477,21 12,21 C12.5523,21 13,20.5523 13,20 L13,19 Z M18.793,10.5 L19.0607,10.2323 C19.6464,9.6465 19.6464,8.69676 19.0607,8.11097 C18.4749,7.52518 17.5251,7.52518 16.9393,8.11097 L14.1109,10.9394 C13.5251,11.5252 13.5251,12.4749 14.1109,13.0607 L16.9393,15.8891 C17.5251,16.4749 18.4749,16.4749 19.0607,15.8891 C19.6464,15.3034 19.6464,14.3536 19.0607,13.7678 L18.7928,13.5 L21,13.5 C21.8284,13.5 22.5,12.8284 22.5,12 C22.5,11.1716 21.8284,10.5 21,10.5 L18.793,10.5 Z M1.5,12 C1.5,11.1716 2.17157,10.5 3,10.5 L5.20705,10.5 L4.93934,10.2323 C4.35355,9.6465 4.35355,8.69676 4.93934,8.11097 C5.52513,7.52518 6.47487,7.52518 7.06066,8.11097 L9.88909,10.9394 C10.4749,11.5252 10.4749,12.4749 9.88909,13.0607 L7.06066,15.8891 C6.47487,16.4749 5.52513,16.4749 4.93934,15.8891 C4.35355,15.3034 4.35355,14.3536 4.93934,13.7678 L5.20717,13.5 L3,13.5 C2.17157,13.5 1.5,12.8284 1.5,12 Z" id="形状" fill="#09244B"></path>
            </g>
        </g>
    </g>
</svg>

<svg xmlns="http://www.w3.org/2000/svg" width="24" height="24"><g fill="none" fill-rule="nonzero"><path d="M24 0v24H0V0h24ZM12.594 23.258l-.012.002-.071.035-.02.004-.014-.004-.071-.036c-.01-.003-.019 0-.024.006l-.004.01-.017.428.005.02.01.013.104.074.015.004.012-.004.104-.074.012-.016.004-.017-.017-.427c-.002-.01-.009-.017-.016-.018Zm.264-.113-.014.002-.184.093-.01.01-.003.011.018.43.005.012.008.008.201.092c.012.004.023 0 .029-.008l.004-.014-.034-.614c-.003-.012-.01-.02-.02-.022Zm-.715.002a.023.023 0 0 0-.027.006l-.006.014-.034.614c0 .012.007.02.017.024l.015-.002.201-.093.01-.008.003-.011.018-.43-.003-.012-.01-.01-.184-.092Z"/><path fill="#09244B" d="M13 4a1 1 0 1 0-2 0v1a1 1 0 1 0 2 0V4Zm0 5a1 1 0 1 0-2 0v1a1 1 0 1 0 2 0V9Zm-1 4a1 1 0 0 1 1 1v1a1 1 0 1 1-2 0v-1a1 1 0 0 1 1-1Zm1 6a1 1 0 1 0-2 0v1a1 1 0 1 0 2 0v-1Zm5.793-8.5.268-.268a1.5 1.5 0 0 0-2.122-2.121l-2.828 2.828a1.5 1.5 0 0 0 0 2.122l2.828 2.828a1.5 1.5 0 0 0 2.122-2.121l-.268-.268H21a1.5 1.5 0 0 0 0-3h-2.207ZM1.5 12A1.5 1.5 0 0 1 3 10.5h2.207l-.268-.268a1.5 1.5 0 0 1 2.122-2.121l2.828 2.828a1.5 1.5 0 0 1 0 2.122l-2.828 2.828a1.5 1.5 0 1 1-2.122-2.121l.268-.268H3A1.5 1.5 0 0 1 1.5 12Z"/></g></svg>
